static/img/kroki/ef400934d8de90c1268a75e3942edf12.svg

<?xml version="1.0" encoding="us-ascii" standalone="no"?><svg xmlns="http://www.w3.org/2000/svg" xmlns:xlink="http://www.w3.org/1999/xlink" contentStyleType="text/css" height="374px" preserveAspectRatio="none" style="width:677px;height:374px;" version="1.1" viewBox="0 0 677 374" width="677px" zoomAndPan="magnify"><defs/><g><!--class azure_machine_learning_data_container_base--><g id="elem_azure_machine_learning_data_container_base"><rect codeLine="23" fill="#3D176E" height="39.7891" id="azure_machine_learning_data_container_base" rx="2.5" ry="2.5" style="stroke:#000D19;stroke-width:0.5;" width="428" x="242" y="167.79"/><ellipse cx="257" cy="187.6845" fill="#ADD1B2" rx="11" ry="11" style="stroke:#181818;stroke-width:1.0;"/><path d="M259.9688,193.3252 Q259.3906,193.622 258.75,193.7627 Q258.1094,193.9189 257.4063,193.9189 Q254.9063,193.9189 253.5781,192.2783 Q252.2656,190.622 252.2656,187.497 Q252.2656,184.372 253.5781,182.7158 Q254.9063,181.0595 257.4063,181.0595 Q258.1094,181.0595 258.75,181.2158 Q259.4063,181.372 259.9688,181.6689 L259.9688,184.3877 Q259.3438,183.8095 258.75,183.5439 Q258.1563,183.2627 257.5313,183.2627 Q256.1875,183.2627 255.5,184.3408 Q254.8125,185.4033 254.8125,187.497 Q254.8125,189.5908 255.5,190.6689 Q256.1875,191.7314 257.5313,191.7314 Q258.1563,191.7314 258.75,191.4658 Q259.3438,191.1845 259.9688,190.6064 L259.9688,193.3252 Z " fill="#000000"/><text fill="#D9B8FF" font-family="Helvetica" font-size="17" lengthAdjust="spacing" textLength="386" x="276" y="193.5698">azure_machine_learning_data_container_base</text></g><!--class azure_machine_learning_workspace_data_container--><g id="elem_azure_machine_learning_workspace_data_container"><rect codeLine="26" fill="#3D176E" height="39.7891" id="azure_machine_learning_workspace_data_container" rx="2.5" ry="2.5" style="stroke:#000D19;stroke-width:0.5;" width="478" x="42" y="328.58"/><ellipse cx="57" cy="348.4745" fill="#ADD1B2" rx="11" ry="11" style="stroke:#181818;stroke-width:1.0;"/><path d="M59.9688,354.1152 Q59.3906,354.412 58.75,354.5527 Q58.1094,354.7089 57.4063,354.7089 Q54.9063,354.7089 53.5781,353.0683 Q52.2656,351.412 52.2656,348.287 Q52.2656,345.162 53.5781,343.5058 Q54.9063,341.8495 57.4063,341.8495 Q58.1094,341.8495 58.75,342.0058 Q59.4063,342.162 59.9688,342.4589 L59.9688,345.1777 Q59.3438,344.5995 58.75,344.3339 Q58.1563,344.0527 57.5313,344.0527 Q56.1875,344.0527 55.5,345.1308 Q54.8125,346.1933 54.8125,348.287 Q54.8125,350.3808 55.5,351.4589 Q56.1875,352.5214 57.5313,352.5214 Q58.1563,352.5214 58.75,352.2558 Q59.3438,351.9745 59.9688,351.3964 L59.9688,354.1152 Z " fill="#000000"/><text fill="#D9B8FF" font-family="Helvetica" font-size="17" lengthAdjust="spacing" textLength="436" x="76" y="354.3598">azure_machine_learning_workspace_data_container</text></g><!--class azure_proxy_resource--><g id="elem_azure_proxy_resource"><rect codeLine="29" fill="#3D176E" height="39.7891" id="azure_proxy_resource" rx="2.5" ry="2.5" style="stroke:#000D19;stroke-width:0.5;" width="224" x="344" y="7"/><ellipse cx="359" cy="26.8945" fill="#ADD1B2" rx="11" ry="11" style="stroke:#181818;stroke-width:1.0;"/><path d="M361.9688,32.5352 Q361.3906,32.832 360.75,32.9727 Q360.1094,33.1289 359.4063,33.1289 Q356.9063,33.1289 355.5781,31.4883 Q354.2656,29.832 354.2656,26.707 Q354.2656,23.582 355.5781,21.9258 Q356.9063,20.2695 359.4063,20.2695 Q360.1094,20.2695 360.75,20.4258 Q361.4063,20.582 361.9688,20.8789 L361.9688,23.5977 Q361.3438,23.0195 360.75,22.7539 Q360.1563,22.4727 359.5313,22.4727 Q358.1875,22.4727 357.5,23.5508 Q356.8125,24.6133 356.8125,26.707 Q356.8125,28.8008 357.5,29.8789 Q358.1875,30.9414 359.5313,30.9414 Q360.1563,30.9414 360.75,30.6758 Q361.3438,30.3945 361.9688,29.8164 L361.9688,32.5352 Z " fill="#000000"/><text fill="#D9B8FF" font-family="Helvetica" font-size="17" lengthAdjust="spacing" textLength="182" x="378" y="32.7798">azure_proxy_resource</text></g><!--class microsoft_resource--><g id="elem_microsoft_resource"><rect codeLine="32" fill="#3D176E" height="39.7891" id="microsoft_resource" rx="2.5" ry="2.5" style="stroke:#000D19;stroke-width:0.5;" width="200" x="7" y="167.79"/><ellipse cx="22" cy="187.6845" fill="#ADD1B2" rx="11" ry="11" style="stroke:#181818;stroke-width:1.0;"/><path d="M24.9688,193.3252 Q24.3906,193.622 23.75,193.7627 Q23.1094,193.9189 22.4063,193.9189 Q19.9063,193.9189 18.5781,192.2783 Q17.2656,190.622 17.2656,187.497 Q17.2656,184.372 18.5781,182.7158 Q19.9063,181.0595 22.4063,181.0595 Q23.1094,181.0595 23.75,181.2158 Q24.4063,181.372 24.9688,181.6689 L24.9688,184.3877 Q24.3438,183.8095 23.75,183.5439 Q23.1563,183.2627 22.5313,183.2627 Q21.1875,183.2627 20.5,184.3408 Q19.8125,185.4033 19.8125,187.497 Q19.8125,189.5908 20.5,190.6689 Q21.1875,191.7314 22.5313,191.7314 Q23.1563,191.7314 23.75,191.4658 Q24.3438,191.1845 24.9688,190.6064 L24.9688,193.3252 Z " fill="#000000"/><text fill="#D9B8FF" font-family="Helvetica" font-size="17" lengthAdjust="spacing" textLength="158" x="41" y="193.5698">microsoft_resource</text></g><!--class resource--><g id="elem_resource"><rect codeLine="35" fill="#3D176E" height="39.7891" id="resource" rx="2.5" ry="2.5" style="stroke:#000D19;stroke-width:0.5;" width="113" x="50.5" y="7"/><ellipse cx="65.5" cy="26.8945" fill="#ADD1B2" rx="11" ry="11" style="stroke:#181818;stroke-width:1.0;"/><path d="M68.4688,32.5352 Q67.8906,32.832 67.25,32.9727 Q66.6094,33.1289 65.9063,33.1289 Q63.4063,33.1289 62.0781,31.4883 Q60.7656,29.832 60.7656,26.707 Q60.7656,23.582 62.0781,21.9258 Q63.4063,20.2695 65.9063,20.2695 Q66.6094,20.2695 67.25,20.4258 Q67.9063,20.582 68.4688,20.8789 L68.4688,23.5977 Q67.8438,23.0195 67.25,22.7539 Q66.6563,22.4727 66.0313,22.4727 Q64.6875,22.4727 64,23.5508 Q63.3125,24.6133 63.3125,26.707 Q63.3125,28.8008 64,29.8789 Q64.6875,30.9414 66.0313,30.9414 Q66.6563,30.9414 67.25,30.6758 Q67.8438,30.3945 68.4688,29.8164 L68.4688,32.5352 Z " fill="#000000"/><text fill="#D9B8FF" font-family="Helvetica" font-size="17" lengthAdjust="spacing" textLength="71" x="84.5" y="32.7798">resource</text></g><!--reverse link azure_proxy_resource to azure_machine_learning_data_container_base--><g id="link_azure_proxy_resource_azure_machine_learning_data_container_base"><path codeLine="38" d="M456,65.05 C456,95.57 456,136.9 456,167.46 " fill="none" id="azure_proxy_resource-backto-azure_machine_learning_data_container_base" style="stroke:#FFAF37;stroke-width:2.0;"/><polygon fill="none" points="456,47.05,450,65.05,462,65.05,456,47.05" style="stroke:#FFAF37;stroke-width:2.0;"/></g><!--reverse link azure_machine_learning_data_container_base to azure_machine_learning_workspace_data_container--><g id="link_azure_machine_learning_data_container_base_azure_machine_learning_workspace_data_container"><path codeLine="39" d="M421.5607,219.9367 C387.9307,250.4567 335.87,297.69 302.18,328.25 " fill="none" id="azure_machine_learning_data_container_base-backto-azure_machine_learning_workspace_data_container" style="stroke:#FFAF37;stroke-width:2.0;"/><polygon fill="none" points="434.89,207.84,417.5285,215.4936,425.5929,224.3798,434.89,207.84" style="stroke:#FFAF37;stroke-width:2.0;"/></g><!--reverse link microsoft_resource to azure_machine_learning_workspace_data_container--><g id="link_microsoft_resource_azure_machine_learning_workspace_data_container"><path codeLine="40" d="M141.2851,219.9742 C174.7251,250.4942 226.45,297.69 259.94,328.25 " fill="none" id="microsoft_resource-backto-azure_machine_learning_workspace_data_container" style="stroke:#FFAF37;stroke-width:2.0;"/><polygon fill="none" points="127.99,207.84,137.2404,224.4059,145.3299,215.5425,127.99,207.84" style="stroke:#FFAF37;stroke-width:2.0;"/></g><!--reverse link resource to microsoft_resource--><g id="link_resource_microsoft_resource"><path codeLine="41" d="M107,65.05 C107,95.57 107,136.9 107,167.46 " fill="none" id="resource-backto-microsoft_resource" style="stroke:#FFAF37;stroke-width:2.0;"/><polygon fill="none" points="107,47.05,101,65.05,113,65.05,107,47.05" style="stroke:#FFAF37;stroke-width:2.0;"/></g><!--SRC=[dP9HJy8m58NVzokQyBm490ealY29qHTYnFVbhhrbpTPskUr4KF-xGzICRepWwptVFVUSffaIo52NViiqwXJ9HIvNfWG2pUP4ThEmXIKsa1BaU1AAzzRuiy0IDB87B5xHAmuXyP8fdXjqZbqrf3lW-PfiPSJ1tXCOLqjeV8DQ5E3St7jIQUMn4KRCqgcK8HcQ3iPYDBd15cP98FqWm-5GZ6OXSlPKR-y_OgLso4RDHrjQZwsOhHFVL6_AFT48sIhwgv_C-0H2ABDcrutPyo4J6QIZ-Ie3OJTxMaBXccUSHqBhjoKkMgrmDXLoqWa_de8Zldyw1hkACD70CsKmAH38rDSJ0HuINhU2Uan92WxPUnHzzczjBENrr-8OxBTNIx9lsuJGsOhuaRLMdAopqdUgnxDEhzkFE8ulw1LTy0IztgVQHnsL_cSKhBTzeoy0]--></g></svg>

<svg xmlns="http://www.w3.org/2000/svg" width="677" height="374" viewBox="0 0 677 374"><rect width="428" height="39.789" x="242" y="167.79" fill="#3D176E" rx="2.5" ry="2.5" style="stroke:#000d19;stroke-width:.5"/><circle cx="257" cy="187.685" r="11" fill="#ADD1B2" style="stroke:#181818;stroke-width:1"/><path d="M259.969 193.325q-.578.297-1.219.438-.64.156-1.344.156-2.5 0-3.828-1.64-1.312-1.657-1.312-4.782t1.312-4.781q1.328-1.656 3.828-1.656.703 0 1.344.156.656.156 1.219.453v2.719q-.625-.578-1.219-.844-.594-.281-1.219-.281-1.344 0-2.031 1.078-.687 1.062-.687 3.156t.687 3.172q.688 1.062 2.031 1.062.625 0 1.219-.265.594-.281 1.219-.86z"/><text x="276" y="193.57" fill="#D9B8FF" font-family="Helvetica" font-size="17" textLength="386">azure_machine_learning_data_container_base</text><rect width="478" height="39.789" x="42" y="328.58" fill="#3D176E" rx="2.5" ry="2.5" style="stroke:#000d19;stroke-width:.5"/><circle cx="57" cy="348.474" r="11" fill="#ADD1B2" style="stroke:#181818;stroke-width:1"/><path d="M59.969 354.115q-.578.297-1.219.438-.64.156-1.344.156-2.5 0-3.828-1.64-1.312-1.657-1.312-4.782t1.312-4.781q1.328-1.656 3.828-1.656.703 0 1.344.156.656.156 1.219.453v2.719q-.625-.579-1.219-.844-.594-.281-1.219-.281-1.343 0-2.031 1.078-.687 1.062-.687 3.156t.687 3.172q.688 1.062 2.031 1.062.625 0 1.219-.265.594-.281 1.219-.86z"/><text x="76" y="354.36" fill="#D9B8FF" font-family="Helvetica" font-size="17" textLength="436">azure_machine_learning_workspace_data_container</text><rect width="224" height="39.789" x="344" y="7" fill="#3D176E" rx="2.5" ry="2.5" style="stroke:#000d19;stroke-width:.5"/><circle cx="359" cy="26.895" r="11" fill="#ADD1B2" style="stroke:#181818;stroke-width:1"/><path d="M361.969 32.535q-.578.297-1.219.438-.64.156-1.344.156-2.5 0-3.828-1.64-1.312-1.657-1.312-4.782t1.312-4.781q1.328-1.656 3.828-1.656.703 0 1.344.156.656.156 1.219.453v2.719q-.625-.578-1.219-.844-.594-.281-1.219-.281-1.344 0-2.031 1.078-.687 1.062-.687 3.156t.687 3.172q.688 1.062 2.031 1.062.625 0 1.219-.265.594-.281 1.219-.86z"/><text x="378" y="32.78" fill="#D9B8FF" font-family="Helvetica" font-size="17" textLength="182">azure_proxy_resource</text><rect width="200" height="39.789" x="7" y="167.79" fill="#3D176E" rx="2.5" ry="2.5" style="stroke:#000d19;stroke-width:.5"/><circle cx="22" cy="187.685" r="11" fill="#ADD1B2" style="stroke:#181818;stroke-width:1"/><path d="M24.969 193.325q-.578.297-1.219.438-.64.156-1.344.156-2.5 0-3.828-1.64-1.312-1.657-1.312-4.782t1.312-4.781q1.328-1.656 3.828-1.656.703 0 1.344.156.656.156 1.219.453v2.719q-.625-.578-1.219-.844-.594-.281-1.219-.281-1.343 0-2.031 1.078-.687 1.062-.687 3.156t.687 3.172q.688 1.062 2.031 1.062.625 0 1.219-.265.594-.281 1.219-.86z"/><text x="41" y="193.57" fill="#D9B8FF" font-family="Helvetica" font-size="17" textLength="158">microsoft_resource</text><rect width="113" height="39.789" x="50.5" y="7" fill="#3D176E" rx="2.5" ry="2.5" style="stroke:#000d19;stroke-width:.5"/><circle cx="65.5" cy="26.895" r="11" fill="#ADD1B2" style="stroke:#181818;stroke-width:1"/><path d="M68.469 32.535q-.578.297-1.219.438-.64.156-1.344.156-2.5 0-3.828-1.64-1.312-1.657-1.312-4.782t1.312-4.781q1.328-1.656 3.828-1.656.703 0 1.344.156.656.156 1.219.453v2.719q-.625-.578-1.219-.844-.594-.281-1.219-.281-1.344 0-2.031 1.078-.687 1.062-.687 3.156T64 29.879q.688 1.062 2.031 1.062.625 0 1.219-.265.594-.281 1.219-.86z"/><text x="84.5" y="32.78" fill="#D9B8FF" font-family="Helvetica" font-size="17" textLength="71">resource</text><path fill="none" d="M456 65.05v102.41m0-120.41-6 18h12zm-34.44 172.887c-33.63 30.52-85.69 77.753-119.38 108.313m132.71-120.41-17.361 7.654 8.064 8.886z" style="stroke:#ffaf37;stroke-width:2"/><g fill="none"><path d="M141.285 219.974c33.44 30.52 85.165 77.716 118.655 108.276" style="stroke:#ffaf37;stroke-width:2"/><path d="m127.99 207.84 9.25 16.566 8.09-8.864z" style="stroke:#ffaf37;stroke-width:2"/></g><path fill="none" d="M107 65.05v102.41m0-120.41-6 18h12z" style="stroke:#ffaf37;stroke-width:2"/></svg>
